fs/slide_eraser_16_filled.svg

<svg viewBox="0 0 16 16" fill="none" xmlns="http://www.w3.org/2000/svg" height="1em" width="1em">
  <path d="M1 3.75C1 2.7835 1.7835 2 2.75 2H13.25C14.2165 2 15 2.7835 15 3.75V8.06988L13.5906 6.66016C12.7119 5.78131 11.2872 5.78124 10.4084 6.65999L6.659 10.4095C6.21978 10.8487 6.00011 11.4243 6 12H2.75C1.7835 12 1 11.2165 1 10.25V3.75ZM11.1155 7.3663C11.6037 6.87811 12.3953 6.87815 12.8834 7.3664L14.6328 9.11622C15.1209 9.60441 15.1209 10.3958 14.6327 10.8839L12.0572 13.4592L8.53908 9.94278L11.1155 7.3663ZM7.94076 10.5411L7.36611 11.1158C6.87795 11.6039 6.87796 12.3954 7.36614 12.8835L9.11563 14.6329C9.60378 15.1211 10.3952 15.1211 10.8833 14.633L11.4588 14.0575L7.94076 10.5411Z" fill="#212121"/>
</svg>

<svg viewBox="0 0 16 16" fill="none" xmlns="http://www.w3.org/2000/svg" height="1em" width="1em">
  <path d="M1 3.75C1 2.784 1.784 2 2.75 2h10.5c.966 0 1.75.784 1.75 1.75v4.32l-1.41-1.41a2.25 2.25 0 0 0-3.182 0L6.66 10.41A2.243 2.243 0 0 0 6 12H2.75A1.75 1.75 0 0 1 1 10.25v-6.5Zm10.116 3.616a1.25 1.25 0 0 1 1.767 0l1.75 1.75a1.25 1.25 0 0 1 0 1.768l-2.576 2.575L8.54 9.943l2.577-2.577ZM7.94 10.541l-.575.575a1.25 1.25 0 0 0 0 1.768l1.75 1.749a1.25 1.25 0 0 0 1.767 0l.576-.575L7.94 10.54Z" fill="#212121"/>
</svg>
